assets/icons/history.svg

<?xml version="1.0" encoding="UTF-8" standalone="no"?>
<svg viewBox="0 0 24 24" height="24" id="svg7384" version="1.1" width="24" sodipodi:docname="clock.svg" inkscape:version="1.1.2 (76b9e6a115, 2022-02-25)"
   xmlns:inkscape="http://www.inkscape.org/namespaces/inkscape"
   xmlns:sodipodi="http://sodipodi.sourceforge.net/DTD/sodipodi-0.dtd"
   xmlns="http://www.w3.org/2000/svg"
   xmlns:svg="http://www.w3.org/2000/svg"
   xmlns:rdf="http://www.w3.org/1999/02/22-rdf-syntax-ns#"
   xmlns:cc="http://creativecommons.org/ns#"
   xmlns:dc="http://purl.org/dc/elements/1.1/">
   <sodipodi:namedview id="namedview22" pagecolor="#ffffff" bordercolor="#666666" borderopacity="1.0" inkscape:pageshadow="2" inkscape:pageopacity="0.0" inkscape:pagecheckerboard="0" showgrid="true" inkscape:zoom="13.999972" inkscape:cx="14.607172" inkscape:cy="10.678593" inkscape:window-width="1920" inkscape:window-height="1016" inkscape:window-x="0" inkscape:window-y="27" inkscape:window-maximized="1" inkscape:current-layer="svg7384">
      <inkscape:grid type="xygrid" id="grid23" />
   </sodipodi:namedview>
   <metadata id="metadata20854">
      <rdf:RDF>
         <cc:Work rdf:about="">
            <dc:format>image/svg+xml</dc:format>
            <dc:type rdf:resource="http://purl.org/dc/dcmitype/StillImage" />
         </cc:Work>
      </rdf:RDF>
   </metadata>
   <defs id="defs7386">
      <linearGradient id="linearGradient5606" inkscape:swatch="solid">
         <stop id="stop5608" offset="0" style="stop-color:#000000;stop-opacity:1;" />
      </linearGradient>
      <linearGradient id="linearGradient4526" inkscape:swatch="solid">
         <stop id="stop4528" offset="0" style="stop-color:#ffffff;stop-opacity:1;" />
      </linearGradient>
      <linearGradient id="linearGradient3600-4" inkscape:swatch="gradient">
         <stop id="stop3602-7" offset="0" style="stop-color:#f4f4f4;stop-opacity:1" />
         <stop id="stop3604-6" offset="1" style="stop-color:#dbdbdb;stop-opacity:1" />
      </linearGradient>
   </defs>
   <g id="layer9" label="status" style="display:inline;stroke-width:0.8" transform="matrix(1.25,0,0,1.25,-1114.2503,235.75)" />
   <g id="layer2" style="display:inline;stroke-width:0.8" transform="matrix(1.25,0,0,1.25,-813.00005,-223)" />
   <g id="layer4" style="display:inline;stroke-width:0.8" transform="matrix(1.25,0,0,1.25,-813.00005,-223)" />
   <g id="g1812" style="display:inline;stroke-width:0.8" transform="matrix(1.25,0,0,1.25,-813.00005,-223)" />
   <g id="g6217" style="display:inline;stroke-width:0.8" transform="matrix(1.25,0,0,1.25,-813.00005,-223)" />
   <g id="layer3" style="display:inline;stroke-width:0.8" transform="matrix(1.25,0,0,1.25,-813.00005,-223)" />
   <g id="layer1" style="display:inline;stroke-width:0.8" transform="matrix(1.25,0,0,1.25,-813.00005,-223)" />
   <path id="path47" style="fill:#808080;fill-rule:evenodd;stroke-linecap:square;stroke-linejoin:round" d="M 11.5 2 A 9.5 9.5 0 0 0 5.046875 4.5820312 L 4.9882812 4.5234375 L 3.7070312 3.2402344 C 3.4129255 4.0581508 3.1425419 4.8845447 2.8984375 5.71875 C 2.6559649 6.5567919 2.4343322 7.4008097 2.234375 8.25 C 3.070625 8.0625 3.9171875 7.8432031 4.7734375 7.5957031 C 5.6359375 7.3419531 6.4596875 7.0698438 7.2421875 6.7773438 L 5.875 5.4082031 L 5.75 5.2832031 A 8.5 8.5 0 0 1 11.5 3 A 8.5 8.5 0 0 1 20 11.5 A 8.5 8.5 0 0 1 11.5 20 A 8.5 8.5 0 0 1 3.0390625 12 L 2.0351562 12 A 9.5 9.5 0 0 0 11.5 21 A 9.5 9.5 0 0 0 21 11.5 A 9.5 9.5 0 0 0 11.5 2 z " />
   <path style="color:#000000;fill:#808080;-inkscape-stroke:none" d="m 11,6 v 6.1875 l 3.623047,4.142578 0.753906,-0.660156 -3.376953,-3.857422 v -5.8125 z" id="path85" />
</svg>

<svg height="24" width="24" xmlns="http://www.w3.org/2000/svg"><path style="fill:gray;stroke-linecap:square;stroke-linejoin:round" d="M11.5 2a9.5 9.5 0 0 0-6.453 2.582l-.059-.059L3.707 3.24a43.093 43.093 0 0 0-.809 2.479 51.944 51.944 0 0 0-.664 2.531 43.154 43.154 0 0 0 2.54-.654 36.394 36.394 0 0 0 2.468-.819L5.875 5.408l-.125-.125A8.5 8.5 0 0 1 11.5 3a8.5 8.5 0 0 1 8.5 8.5 8.5 8.5 0 0 1-8.5 8.5 8.5 8.5 0 0 1-8.46-8H2.034a9.5 9.5 0 0 0 9.465 9 9.5 9.5 0 0 0 9.5-9.5A9.5 9.5 0 0 0 11.5 2z"/><path style="color:#000;fill:gray;-inkscape-stroke:none" d="M11 6v6.188l3.623 4.142.754-.66L12 11.812V6z"/></svg>
